icons/svg/topo/topo_ford_stepping_stones.svg

<?xml version="1.0" encoding="UTF-8" standalone="no"?>
<!-- Created with Inkscape (http://www.inkscape.org/) -->

<svg
   xmlns:dc="http://purl.org/dc/elements/1.1/"
   xmlns:cc="http://creativecommons.org/ns#"
   xmlns:rdf="http://www.w3.org/1999/02/22-rdf-syntax-ns#"
   xmlns:svg="http://www.w3.org/2000/svg"
   xmlns="http://www.w3.org/2000/svg"
   xmlns:sodipodi="http://sodipodi.sourceforge.net/DTD/sodipodi-0.dtd"
   xmlns:inkscape="http://www.inkscape.org/namespaces/inkscape"
   version="1.0"
   width="580"
   height="580"
   id="svg2"
   sodipodi:version="0.32"
   inkscape:version="0.91 r"
   sodipodi:docname="ford_stepping_stones.svg"
   inkscape:output_extension="org.inkscape.output.svg.inkscape">
  <metadata
     id="metadata10">
    <rdf:RDF>
      <cc:Work
         rdf:about="">
        <dc:format>image/svg+xml</dc:format>
        <dc:type
           rdf:resource="http://purl.org/dc/dcmitype/StillImage" />
        <cc:license
           rdf:resource="http://web.resource.org/cc/PublicDomain" />
        <dc:language>en</dc:language>
        <dc:title />
      </cc:Work>
    </rdf:RDF>
  </metadata>
  <sodipodi:namedview
     inkscape:window-height="1004"
     inkscape:window-width="1920"
     inkscape:pageshadow="2"
     inkscape:pageopacity="0.0"
     guidetolerance="10.0"
     gridtolerance="10.0"
     objecttolerance="10.0"
     borderopacity="1.0"
     bordercolor="#666666"
     pagecolor="#ffffff"
     id="base"
     showgrid="false"
     inkscape:zoom="0.50000001"
     inkscape:cx="465.74982"
     inkscape:cy="357.84188"
     inkscape:window-x="1680"
     inkscape:window-y="0"
     inkscape:current-layer="svg2"
     inkscape:window-maximized="1" />
  <defs
     id="defs4">
    <inkscape:perspective
       sodipodi:type="inkscape:persp3d"
       inkscape:vp_x="0 : 290 : 1"
       inkscape:vp_y="0 : 1000 : 0"
       inkscape:vp_z="580 : 290 : 1"
       inkscape:persp3d-origin="290 : 193.33333 : 1"
       id="perspective12" />
    <style
       type="text/css"
       id="style6">
   
    .fil0 {fill:#EF7900}
   
  </style>
    <inkscape:perspective
       id="perspective6807"
       inkscape:persp3d-origin="29.116032 : 19.410688 : 1"
       inkscape:vp_z="58.232063 : 29.116032 : 1"
       inkscape:vp_y="0 : 1000 : 0"
       inkscape:vp_x="0 : 29.116032 : 1"
       sodipodi:type="inkscape:persp3d" />
    <inkscape:perspective
       id="perspective6954"
       inkscape:persp3d-origin="290 : 193.33333 : 1"
       inkscape:vp_z="580 : 290 : 1"
       inkscape:vp_y="0 : 1000 : 0"
       inkscape:vp_x="0 : 290 : 1"
       sodipodi:type="inkscape:persp3d" />
    <marker
       viewBox="0 0 10 10"
       refY="5"
       refX="10"
       orient="auto"
       markerWidth="4"
       markerUnits="strokeWidth"
       markerHeight="3"
       id="ArrowStart">
      <path
         id="path2295"
         d="M 10 0 L 0 5 L 10 10 z" />
    </marker>
    <marker
       viewBox="0 0 10 10"
       refY="5"
       refX="0"
       orient="auto"
       markerWidth="4"
       markerUnits="strokeWidth"
       markerHeight="3"
       id="ArrowEnd">
      <path
         id="path2292"
         d="M 0 0 L 10 5 L 0 10 z" />
    </marker>
    <inkscape:perspective
       id="perspective7597"
       inkscape:persp3d-origin="178.5405 : 158.483 : 1"
       inkscape:vp_z="357.08099 : 237.7245 : 1"
       inkscape:vp_y="0 : 1000 : 0"
       inkscape:vp_x="0 : 237.7245 : 1"
       sodipodi:type="inkscape:persp3d" />
    <inkscape:perspective
       id="perspective2896"
       inkscape:persp3d-origin="0.5 : 0.33333333 : 1"
       inkscape:vp_z="1 : 0.5 : 1"
       inkscape:vp_y="0 : 1000 : 0"
       inkscape:vp_x="0 : 0.5 : 1"
       sodipodi:type="inkscape:persp3d" />
    <inkscape:perspective
       id="perspective2887"
       inkscape:persp3d-origin="0.5 : 0.33333333 : 1"
       inkscape:vp_z="1 : 0.5 : 1"
       inkscape:vp_y="0 : 1000 : 0"
       inkscape:vp_x="0 : 0.5 : 1"
       sodipodi:type="inkscape:persp3d" />
  </defs>
  <g
     id="g1327">
    <path
       d="M 66.275,1.768 C 24.94,1.768 1.704,23.139 1.704,66.804 L 1.704,516.927 C 1.704,557.771 22.598,579.156 63.896,579.156 L 515.92,579.156 C 557.227,579.156 578.149,558.84 578.149,516.927 L 578.149,66.804 C 578.149,24.203 557.227,1.768 514.627,1.768 C 514.624,1.768 66.133,1.625 66.275,1.768 z"
       style="fill:#111111;stroke:#eeeeee;stroke-width:3.40799999"
       id="path1329" />
  </g>
  <g
     id="g2319"
     transform="translate(879.29125,36.805119)">
    <path
       id="path2323"
       style="fill:#ffffff;stroke:none"
       d="" />
  </g>
  <g
     id="g2325"
     transform="translate(879.29125,36.805119)">
    <path
       id="path2329"
       style="fill:#ffffff;stroke:none"
       d="" />
  </g>
  <path
     inkscape:connector-curvature="0"
     sodipodi:nodetypes="cccsssccsssc"
     id="path3236"
     d="M 189.78333,42.363019 C 154.61205,43.411559 113.96064,55.701669 64.393358,85.084 l 19.844025,33.53554 C 136.48693,87.64722 172.93521,79.65892 202.17501,81.44449 c 29.2398,1.78556 53.03599,13.654319 79.72272,28.07626 26.68673,14.42194 55.97362,31.40473 93.84751,37.2617 37.87389,5.85698 83.14581,-0.17857 139.86138,-27.38302 L 498.70887,84.3041 c -51.62,24.7603 -87.41858,28.57565 -116.98443,24.00348 C 352.1586,103.7354 327.65672,89.999269 300.44193,75.29197 273.22715,60.584669 242.99582,44.886219 204.5147,42.536329 c -4.81015,-0.29374 -9.7069,-0.3231 -14.73137,-0.17331 z"
     style="color:#000000;font-style:normal;font-variant:normal;font-weight:normal;font-stretch:normal;font-size:medium;line-height:normal;font-family:'Bitstream Vera Sans';-inkscape-font-specification:'Bitstream Vera Sans';text-indent:0;text-align:start;text-decoration:none;text-decoration-line:none;letter-spacing:normal;word-spacing:normal;text-transform:none;direction:ltr;block-progression:tb;writing-mode:lr-tb;text-anchor:start;display:inline;overflow:visible;visibility:visible;fill:#ffffff;fill-opacity:1;fill-rule:nonzero;stroke:#ffffff;stroke-width:10.30608082;stroke-linecap:round;stroke-linejoin:round;stroke-miterlimit:4;stroke-dasharray:none;stroke-opacity:1;marker:none;enable-background:accumulate" />
  <path
     inkscape:connector-curvature="0"
     sodipodi:nodetypes="cccsssccsssc"
     id="path3236-3"
     d="m 189.78333,431.27174 c -35.17128,1.04854 -75.82269,13.33865 -125.389972,42.72098 l 19.844025,33.53554 c 52.249547,-30.97232 88.697827,-38.96062 117.937627,-37.17505 29.2398,1.78556 53.03599,13.65432 79.72272,28.07626 26.68673,14.42194 55.97362,31.40473 93.84751,37.2617 37.87389,5.85698 83.14581,-0.17857 139.86138,-27.38302 l -16.89775,-35.09533 c -51.62,24.7603 -87.41858,28.57565 -116.98443,24.00348 -29.56584,-4.57218 -54.06772,-18.30831 -81.28251,-33.01561 -27.21478,-14.7073 -57.44611,-30.40575 -95.92723,-32.75564 -4.81015,-0.29374 -9.7069,-0.3231 -14.73137,-0.17331 z"
     style="color:#000000;font-style:normal;font-variant:normal;font-weight:normal;font-stretch:normal;font-size:medium;line-height:normal;font-family:'Bitstream Vera Sans';-inkscape-font-specification:'Bitstream Vera Sans';text-indent:0;text-align:start;text-decoration:none;text-decoration-line:none;letter-spacing:normal;word-spacing:normal;text-transform:none;direction:ltr;block-progression:tb;writing-mode:lr-tb;text-anchor:start;display:inline;overflow:visible;visibility:visible;fill:#ffffff;fill-opacity:1;fill-rule:nonzero;stroke:#ffffff;stroke-width:10.30608082;stroke-linecap:round;stroke-linejoin:round;stroke-miterlimit:4;stroke-dasharray:none;stroke-opacity:1;marker:none;enable-background:accumulate" />
  <circle
     style="color:#000000;clip-rule:nonzero;display:inline;overflow:visible;visibility:visible;opacity:1;isolation:auto;mix-blend-mode:normal;color-interpolation:sRGB;color-interpolation-filters:linearRGB;solid-color:#000000;solid-opacity:1;fill:#ffffff;fill-opacity:1;fill-rule:evenodd;stroke:none;stroke-width:60;stroke-linecap:round;stroke-linejoin:round;stroke-miterlimit:4;stroke-dasharray:none;stroke-dashoffset:0;stroke-opacity:1;marker:none;color-rendering:auto;image-rendering:auto;shape-rendering:auto;text-rendering:auto;enable-background:accumulate"
     id="path4195"
     cx="248.39026"
     cy="391.22412"
     r="34.384567"
     transform="matrix(0.99914603,-0.0413183,0.0413183,0.99914603,0,0)" />
  <circle
     style="color:#000000;clip-rule:nonzero;display:inline;overflow:visible;visibility:visible;opacity:1;isolation:auto;mix-blend-mode:normal;color-interpolation:sRGB;color-interpolation-filters:linearRGB;solid-color:#000000;solid-opacity:1;fill:#ffffff;fill-opacity:1;fill-rule:evenodd;stroke:none;stroke-width:60;stroke-linecap:round;stroke-linejoin:round;stroke-miterlimit:4;stroke-dasharray:none;stroke-dashoffset:0;stroke-opacity:1;marker:none;color-rendering:auto;image-rendering:auto;shape-rendering:auto;text-rendering:auto;enable-background:accumulate"
     id="path4195-8"
     cx="276.20187"
     cy="298.75943"
     r="34.384567"
     transform="matrix(0.99914603,-0.0413183,0.0413183,0.99914603,0,0)" />
  <circle
     style="color:#000000;clip-rule:nonzero;display:inline;overflow:visible;visibility:visible;opacity:1;isolation:auto;mix-blend-mode:normal;color-interpolation:sRGB;color-interpolation-filters:linearRGB;solid-color:#000000;solid-opacity:1;fill:#ffffff;fill-opacity:1;fill-rule:evenodd;stroke:none;stroke-width:60;stroke-linecap:round;stroke-linejoin:round;stroke-miterlimit:4;stroke-dasharray:none;stroke-dashoffset:0;stroke-opacity:1;marker:none;color-rendering:auto;image-rendering:auto;shape-rendering:auto;text-rendering:auto;enable-background:accumulate"
     id="path4195-8-3"
     cx="304.22247"
     cy="206.99135"
     r="34.384567"
     transform="matrix(0.99914603,-0.0413183,0.0413183,0.99914603,0,0)" />
</svg>

<svg width="580" height="580" viewBox="0 0 580 580" fill="none" xmlns="http://www.w3.org/2000/svg">
<g clip-path="url(#clip0)">
<path d="M66.275 1.76815C24.94 1.76815 1.70398 23.1391 1.70398 66.8041V516.927C1.70398 557.771 22.598 579.156 63.896 579.156H515.92C557.227 579.156 578.149 558.84 578.149 516.927V66.8041C578.149 24.2031 557.227 1.76815 514.627 1.76815C514.624 1.76815 66.133 1.62515 66.275 1.76815Z" fill="#111111" stroke="#EEEEEE" stroke-width="3.408"/>
<path d="M189.783 42.3629C154.612 43.4114 113.961 55.7015 64.3934 85.0839L84.2374 118.619C136.487 87.6471 172.935 79.6588 202.175 81.4444C231.415 83.2299 255.211 95.0987 281.898 109.521C308.584 123.943 337.871 140.925 375.745 146.782C413.619 152.639 458.891 146.604 515.607 119.399L498.709 84.304C447.089 109.064 411.29 112.88 381.724 108.307C352.159 103.735 327.657 89.9991 300.442 75.2918C273.227 60.5845 242.996 44.8861 204.515 42.5362C199.705 42.2425 194.808 42.2131 189.783 42.3629Z" fill="white" stroke="white" stroke-width="10.3061" stroke-linecap="round" stroke-linejoin="round"/>
<path d="M189.783 431.272C154.612 432.32 113.961 444.61 64.3934 473.993L84.2374 507.528C136.487 476.556 172.935 468.567 202.175 470.353C231.415 472.139 255.211 484.007 281.898 498.429C308.584 512.851 337.871 529.834 375.745 535.691C413.619 541.548 458.891 535.512 515.607 508.308L498.709 473.213C447.089 497.973 411.29 501.788 381.724 497.216C352.159 492.644 327.657 478.908 300.442 464.201C273.227 449.493 242.996 433.795 204.515 431.445C199.705 431.151 194.808 431.122 189.783 431.272V431.272Z" fill="white" stroke="white" stroke-width="10.3061" stroke-linecap="round" stroke-linejoin="round"/>
<path d="M265.764 414.982C284.737 414.197 299.483 398.18 298.698 379.206C297.913 360.232 281.896 345.487 262.922 346.272C243.948 347.056 229.203 363.074 229.988 382.048C230.772 401.021 246.79 415.767 265.764 414.982Z" fill="white"/>
<path d="M289.731 321.447C308.705 320.663 323.45 304.645 322.665 285.671C321.881 266.698 305.863 251.952 286.89 252.737C267.916 253.522 253.17 269.539 253.955 288.513C254.74 307.487 270.757 322.232 289.731 321.447Z" fill="white"/>
<path d="M313.936 228.6C332.91 227.815 347.655 211.798 346.87 192.824C346.086 173.85 330.068 159.105 311.094 159.889C292.121 160.674 277.375 176.691 278.16 195.665C278.945 214.639 294.962 229.384 313.936 228.6Z" fill="white"/>
</g>
<defs>
<clipPath id="clip0">
<path d="M0 0H580V580H0V0Z" fill="white"/>
</clipPath>
</defs>
</svg>
